X: 151
T: No_75_Fourth_Song_of_the_Dog_Feast.krn
%%abc-version 2.0
%%abcx-abcm2ps-target-version 5.9.1 (29 Sep 2008)
%%abc-creator hum2abc beta
%%abcx-conversion-date 2020/08/10 18:54:57
%%gracespace 0 6 6
%%humdrum-veritas 2588427082
%%humdrum-veritas-data 1744795435
%%linebreak <none>
%%barnumbers 0
L: 1/8
M: 5/4
%%staves {1 2}
V: 1 clef=bass
V: 2 clef=bass
K: Eb
[V:1] [K:clef=bass][M:5/4]E2F<EE2C<CC2 | 
[V:2] [K:clef=bass][M:5/4](3!accent!G,, z G,, (3!accent!G,, z G,, (3!accent!G,, z G,, (3!accent!G,, z G,, (3!accent!G,, z G,, | 
[V:1] E2E<EE2C<CC2 ]|:  
[V:2] z8z2 ]|:  
[V:1] [M:2/4]E2C/C3/ | 
[V:2] [M:2/4]z4 | 
[V:1] C4 ||  
[V:2] z4 ||  
[V:1] [M:3/4]=B,2B,<A, F,/F,3/ ||  
[V:2] [M:3/4]z6 ||  
[V:1] [M:2/4]A,<A, A,/F,3/ | 
[V:2] [M:2/4]z4 | 
[V:1] E,2E,2 | 
[V:2] z4 | 
[V:1] C,>C,!fermata!C,2 ||  
[V:2] z4 ||  
[V:1] [M:3/4]E,2F,<E,!fermata!E,2 ||  
[V:2] [M:3/4]z6 ||  
[V:1] [M:2/4]C,2C,3/C,/ | 
[V:2] [M:2/4]z4 | 
[V:1] C,4- | 
[V:2] z4 | 
[V:1] C,4 :|]  
[V:2] z4 :|]  


